app/img/icon-facebook.svg

<svg width="42" height="42" viewBox="0 0 42 42" fill="red" xmlns="http://www.w3.org/2000/svg">
<path d="M35.7517 4.98962H6.29255C5.58409 4.98962 5.01172 5.562 5.01172 6.27046V35.7296C5.01172 36.438 5.58409 37.0104 6.29255 37.0104H35.7517C36.4601 37.0104 37.0325 36.438 37.0325 35.7296V6.27046C37.0325 5.562 36.4601 4.98962 35.7517 4.98962ZM32.0533 14.3357H29.4956C27.4903 14.3357 27.1021 15.2883 27.1021 16.6892V19.7752H31.8892L31.2648 24.6064H27.1021V37.0104H22.1108V24.6104H17.9361V19.7752H22.1108V16.2129C22.1108 12.0782 24.6365 9.82476 28.3268 9.82476C30.096 9.82476 31.613 9.95685 32.0573 10.0169V14.3357H32.0533Z" fill="white"/>
</svg>

<svg width="42" height="42" fill="red" xmlns="http://www.w3.org/2000/svg"><path d="M35.752 4.99H6.292a1.28 1.28 0 00-1.28 1.28v29.46c0 .708.572 1.28 1.28 1.28h29.46a1.28 1.28 0 001.28-1.28V6.27a1.28 1.28 0 00-1.28-1.28zm-3.699 9.346h-2.557c-2.006 0-2.394.952-2.394 2.353v3.086h4.787l-.624 4.831h-4.163V37.01h-4.991v-12.4h-4.175v-4.835h4.175v-3.562c0-4.135 2.526-6.388 6.216-6.388 1.769 0 3.286.132 3.73.192v4.319h-.004z" fill="#fff"/></svg>
